img/footer/dzen.svg

<svg width="40" height="40" viewBox="0 0 40 40" fill="none" xmlns="http://www.w3.org/2000/svg">
<g opacity="0.2">
<rect x="0.50622" y="0.393305" width="38.5439" height="38.5439" rx="19.272" stroke="white" stroke-width="0.786611"/>
<path fill-rule="evenodd" clip-rule="evenodd" d="M9.75003 14.9453C9.72858 16.799 9.61075 17.8409 8.96326 18.5361C8.31577 19.2314 7.34548 19.3579 5.61914 19.3809V19.655C7.34548 19.678 8.31577 19.8046 8.96326 20.4998C9.61075 21.195 9.72858 22.2369 9.75003 24.0906H10.0053C10.0267 22.2369 10.1446 21.195 10.792 20.4998C11.4395 19.8046 12.4098 19.678 14.1362 19.655V19.3809C12.4098 19.3579 11.4395 19.2314 10.792 18.5361C10.1446 17.8409 10.0267 16.799 10.0053 14.9453H9.75003Z" fill="white"/>
<path d="M17.0701 24.3846V22.9481H20.5025V24.3846H21.5451V22.0168H20.9454V16.0625H17.024L16.9133 19.4805C16.8764 20.5901 16.7657 21.4917 16.4704 22.0168H16.0275V24.3846H17.0701ZM17.8913 19.639L17.9744 16.9937H19.829V22.0168H17.5223C17.716 21.5511 17.8544 20.7486 17.8913 19.639Z" fill="white"/>
<path d="M23.4186 22.1156C22.8557 22.1156 22.3021 21.8977 22.0069 21.6599V22.6209C22.2191 22.8092 22.7543 23.0469 23.5478 23.0469C24.7195 23.0469 25.3378 22.4822 25.3378 21.4816C25.3378 20.897 24.9964 20.5007 24.3874 20.362C24.9595 20.1639 25.1994 19.728 25.1994 19.1731C25.1994 18.331 24.5812 17.8654 23.5847 17.8654C22.865 17.8654 22.3944 18.1032 22.1268 18.2815V19.2425C22.4221 19.0345 22.8281 18.7967 23.4278 18.7967C23.8338 18.7967 24.0921 19.0047 24.0921 19.3713C24.0921 19.7577 23.8707 19.9657 23.4186 19.9657H22.7266V20.8574H23.4186C23.9814 20.8574 24.2029 21.0358 24.2029 21.4717C24.2029 21.868 23.9353 22.1156 23.4186 22.1156Z" fill="white"/>
<path d="M29.4921 22.611V21.65C29.1507 21.8977 28.5786 22.1156 28.0435 22.1156C27.2408 22.1156 26.9363 21.7094 26.8902 20.8772H29.5383V20.2531C29.5383 18.5193 28.8279 17.8654 27.7298 17.8654C26.3919 17.8654 25.7553 18.9651 25.7553 20.471C25.7553 22.2048 26.5488 23.0469 27.9512 23.0469C28.6525 23.0469 29.1691 22.8488 29.4921 22.611ZM27.7114 18.7967C28.2558 18.7967 28.4218 19.2821 28.4218 19.9063V20.0054H26.8902C26.9179 19.2128 27.1855 18.7967 27.7114 18.7967Z" fill="white"/>
<path d="M32.8391 17.9631V19.9346H31.372V17.9631H30.274V22.9465H31.372V20.8659H32.8391V22.9465H33.9371V17.9631H32.8391Z" fill="white"/>
</g>
</svg>

<svg width="40" height="40" fill="none" xmlns="http://www.w3.org/2000/svg"><g opacity=".2"><rect x=".506" y=".393" width="38.544" height="38.544" rx="19.272" stroke="#fff" stroke-width=".787"/><path fill-rule="evenodd" clip-rule="evenodd" d="M9.75 14.945c-.021 1.854-.14 2.896-.787 3.591-.647.695-1.618.822-3.344.845v.274c1.726.023 2.697.15 3.344.845.648.695.766 1.737.787 3.59h.255c.022-1.853.14-2.895.787-3.59.648-.695 1.618-.822 3.344-.845v-.274c-1.726-.023-2.696-.15-3.344-.845-.647-.695-.765-1.737-.787-3.59H9.75z" fill="#fff"/><path d="M17.07 24.385v-1.437h3.433v1.437h1.042v-2.368h-.6v-5.954h-3.921l-.11 3.418c-.038 1.11-.148 2.01-.444 2.536h-.442v2.368h1.042zm.821-4.746l.083-2.645h1.855v5.023h-2.307c.194-.466.332-1.268.37-2.378zm5.528 2.477c-.563 0-1.117-.218-1.412-.456v.96c.212.19.747.427 1.54.427 1.172 0 1.79-.565 1.79-1.565 0-.585-.34-.981-.95-1.12.572-.198.812-.634.812-1.189 0-.842-.618-1.308-1.614-1.308-.72 0-1.19.238-1.458.417v.96c.295-.207.701-.445 1.3-.445.407 0 .665.208.665.574 0 .387-.221.595-.673.595h-.692v.891h.692c.562 0 .784.179.784.615 0 .396-.268.644-.784.644zm6.073.495v-.961a2.663 2.663 0 01-1.448.466c-.803 0-1.108-.407-1.154-1.239h2.648v-.624c0-1.734-.71-2.388-1.808-2.388-1.338 0-1.975 1.1-1.975 2.606 0 1.734.794 2.576 2.196 2.576.701 0 1.218-.198 1.541-.436zm-1.78-3.814c.544 0 .71.485.71 1.11v.098H26.89c.028-.792.296-1.208.821-1.208zm5.128-.834v1.972h-1.468v-1.972h-1.098v4.983h1.098v-2.08h1.467v2.08h1.098v-4.983H32.84z" fill="#fff"/></g></svg>
